Frontend/src/assets/images/logo-cd.svg

<svg width="150" height="30" viewBox="0 0 150 30" fill="none" xmlns="http://www.w3.org/2000/svg">
<path d="M1.06943 0.3L5.23189 4.05L1.06943 7.8C0.947935 7.899 1.02893 8.1 1.18943 8.1H2.49742C2.57692 8.1 2.62642 8.0835 2.67742 8.04L7.04087 4.05L2.67742 0.0599991C2.62642 0.0164991 2.57842 0 2.49742 0H1.18943C1.02893 0 0.949435 0.1995 1.06943 0.3Z" fill="white"/>
<path d="M86.6901 5.9235C85.9581 5.9235 85.5426 6.3585 85.5426 7.0905C85.5426 7.8225 85.9581 8.238 86.6901 8.238C87.4221 8.238 87.8376 7.8225 87.8376 7.0905C87.8376 6.3585 87.4221 5.9235 86.6901 5.9235Z" fill="white"/>
<path d="M141.711 12.7905C141.593 12.7905 141.533 12.7305 141.533 12.6315V11.82C141.533 11.7015 141.593 11.6415 141.711 11.6415H146.261C146.379 11.6415 146.439 11.7 146.439 11.82V22.9365C146.439 24.1035 147.032 24.7755 148.22 24.7755H149.821C149.94 24.7755 150 24.8355 150 24.9345V25.746C150 25.8645 149.94 25.9245 149.821 25.9245H148.022C146.162 25.9245 145.074 24.837 145.074 22.977V12.7905H141.711Z" fill="white"/>
<path d="M41.4386 16.9245C41.2811 16.9245 41.2406 16.944 41.1221 17.043L36.9086 20.862V11.8215C36.9086 11.7015 36.8486 11.643 36.7301 11.643H35.7221C35.6036 11.643 35.5436 11.703 35.5436 11.8215V25.7475C35.5436 25.866 35.6036 25.926 35.7221 25.926H36.7301C36.8486 25.926 36.9086 25.866 36.9086 25.7475V21.237L41.3981 25.767C41.5166 25.887 41.5961 25.926 41.7341 25.926H43.099C43.2775 25.926 43.336 25.7475 43.2175 25.629L38.5106 21.0195L42.8425 17.2215C42.9805 17.103 42.862 16.9245 42.7435 16.9245H41.4386Z" fill="white"/>
<path d="M23.7673 24.48C23.8063 24.381 23.9053 24.3615 24.0238 24.4005C25.0528 24.756 26.0413 24.915 26.8723 24.915C28.2763 24.915 29.2257 24.4605 29.2257 23.748C29.2257 22.8375 28.1383 22.4025 26.9518 21.9675L26.8558 21.9317C25.3983 21.3888 23.8258 20.8029 23.8258 19.1385C23.8258 17.319 25.8043 16.785 27.6838 16.785C28.7712 16.785 29.8197 16.944 30.4137 17.1405C30.5127 17.1795 30.5517 17.2785 30.5127 17.3775L30.2757 18.1485C30.2367 18.267 30.1572 18.2865 30.0582 18.267C29.5047 18.108 28.4368 17.9115 27.4468 17.9115C26.2798 17.9115 25.2118 18.189 25.2118 19.098C25.2118 19.9095 26.2798 20.3445 27.4663 20.8185L27.5574 20.855C29.0169 21.4387 30.6117 22.0766 30.6117 23.568C30.6117 25.4865 28.7712 26.061 26.9128 26.061C25.5673 26.061 24.2233 25.7835 23.5888 25.488C23.4703 25.428 23.4703 25.35 23.4898 25.2705L23.7673 24.48Z" fill="white"/>
<path d="M6.82343 17.202C6.15143 16.9455 5.33995 16.7865 4.35146 16.7865C1.48349 16.7865 0 18.705 0 21.417C0 24.147 1.52249 26.0655 4.35146 26.0655C5.35945 26.0655 6.20993 25.9065 6.92243 25.5705C7.02143 25.5315 7.02142 25.4325 6.98242 25.3335L6.64643 24.582C6.60743 24.5025 6.50843 24.483 6.40943 24.522C5.57844 24.798 5.20195 24.8775 4.41145 24.8775C2.96847 24.8775 1.42499 23.9475 1.42499 21.4155C1.42499 19.0815 2.69097 17.9535 4.41145 17.9535C5.02495 17.9535 5.47944 17.973 6.31043 18.2505C6.40943 18.2895 6.50843 18.27 6.54743 18.1905L6.88343 17.439C6.92243 17.361 6.92243 17.241 6.82343 17.202Z" fill="white"/>
<path fill-rule="evenodd" clip-rule="evenodd" d="M18.2023 24.402C17.3713 24.7785 16.7383 24.9165 15.6898 24.9165C14.0668 24.9165 13.0588 23.7885 12.9988 21.8715H18.8938C19.0513 21.8715 19.1113 21.7725 19.1113 21.6345V21.1395C19.1113 18.192 17.8063 16.788 15.5113 16.788C13.2568 16.788 11.5948 18.3705 11.5948 21.4755C11.5948 24.4215 12.9988 26.064 15.7483 26.064C16.9558 26.064 17.7073 25.866 18.6568 25.4115C18.7558 25.3725 18.7558 25.293 18.7168 25.2135L18.4198 24.4815C18.3808 24.402 18.3013 24.363 18.2023 24.402ZM12.9988 20.802C13.1773 18.645 14.4238 17.874 15.5308 17.874C16.6198 17.874 17.7268 18.507 17.7268 20.802H12.9988Z" fill="white"/>
<path fill-rule="evenodd" clip-rule="evenodd" d="M50.941 26.0625C48.073 26.0625 47.143 24.1245 47.143 21.414C47.143 18.7035 48.073 16.785 50.941 16.785C53.8089 16.785 54.7194 18.7035 54.7194 21.414C54.7194 24.1245 53.8089 26.0625 50.941 26.0625ZM50.941 17.814C49.399 17.814 48.568 19.041 48.568 21.414C48.568 23.808 49.399 25.0335 50.941 25.0335C52.4845 25.0335 53.2944 23.8275 53.2944 21.414C53.2944 19.0215 52.4845 17.814 50.941 17.814Z" fill="white"/>
<path d="M62.6288 23.7495C61.8968 23.7495 61.4813 24.1845 61.4813 24.9165C61.4813 25.647 61.8968 26.0625 62.6288 26.064C63.3608 26.064 63.7763 25.6485 63.7763 24.9165C63.7763 24.1845 63.3608 23.7495 62.6288 23.7495Z" fill="white"/>
<path fill-rule="evenodd" clip-rule="evenodd" d="M76.5893 11.8215C76.5893 11.703 76.6493 11.643 76.7663 11.643H77.7758C77.8943 11.643 77.9543 11.7015 77.9543 11.8215V25.7475C77.9543 25.866 77.8943 25.926 77.7758 25.926H77.1023C77.0033 25.926 76.9643 25.887 76.9433 25.788L76.7843 25.1355C75.8348 25.788 74.9648 26.0655 74.1143 26.0655C71.7008 26.0655 70.5338 24.345 70.5338 21.4365C70.5338 18.5685 71.7608 16.788 74.3318 16.788C75.1628 16.788 75.9143 17.085 76.5878 17.58V11.8215H76.5893ZM74.5133 24.876C75.2063 24.876 75.9968 24.639 76.5908 24.2625V18.585C75.9773 18.189 75.2063 17.913 74.5133 17.913C72.9698 17.913 71.9618 19.119 71.9618 21.453C71.9603 23.967 72.9698 24.876 74.5133 24.876Z" fill="white"/>
<path fill-rule="evenodd" clip-rule="evenodd" d="M134.751 18.0705C135.938 18.0705 136.532 18.744 136.532 19.911H136.529V20.7015H134.55C132.197 20.7015 130.851 21.3735 130.851 23.55C130.851 25.053 131.702 26.0625 133.245 26.0625C134.472 26.0625 135.284 25.785 136.727 25.152L136.885 25.785C136.907 25.884 136.946 25.923 137.045 25.923H137.718C137.837 25.923 137.896 25.863 137.896 25.7445V19.8705C137.896 18.0105 136.808 16.923 134.949 16.923H131.864C131.765 16.923 131.685 16.983 131.685 17.1015V17.913C131.685 18.0105 131.765 18.0705 131.864 18.0705H134.751ZM132.258 23.4525C132.258 22.266 132.99 21.771 134.375 21.771H136.532V24.2835C135.423 24.6585 134.394 24.9555 133.524 24.9555C132.654 24.9555 132.258 24.303 132.258 23.4525Z" fill="white"/>
<path fill-rule="evenodd" clip-rule="evenodd" d="M100.97 16.9245H101.622C101.741 16.9245 101.801 16.9845 101.799 17.103V27.0525C101.799 28.9125 100.712 30 98.8519 30H95.7484C95.6299 30 95.5699 29.94 95.5699 29.8215V29.01C95.5699 28.911 95.6299 28.851 95.7484 28.851H98.6344C99.8209 28.851 100.434 28.1775 100.434 27.0105V25.212C99.6829 25.7655 98.7139 26.0625 97.9024 26.0625C95.4904 26.0625 94.4015 24.342 94.4015 21.4335C94.4015 18.5655 95.5294 16.785 98.1004 16.785C98.9704 16.785 99.8209 17.1015 100.632 17.715L100.791 17.0625C100.811 16.9635 100.851 16.9245 100.97 16.9245ZM95.8264 21.4545C95.8264 23.9655 96.7369 24.876 98.2789 24.876C98.9719 24.876 99.8614 24.639 100.436 24.264V18.5865C99.8419 18.1905 98.9719 17.9145 98.2789 17.9145C96.7369 17.9145 95.8264 19.1205 95.8264 21.4545Z" fill="white"/>
<path d="M82.6342 18.072C82.5157 18.072 82.4557 18.012 82.4557 17.8935V17.1015C82.4557 16.983 82.5157 16.923 82.6342 16.923H87.4401C87.5586 16.923 87.6186 16.983 87.6186 17.1015V24.618C87.6186 24.7365 87.6576 24.777 87.7566 24.777H90.7431C90.8616 24.777 90.9216 24.837 90.9216 24.9555V25.746C90.9216 25.8645 90.8616 25.9245 90.7431 25.9245H82.6327C82.5142 25.9245 82.4542 25.8645 82.4542 25.746V24.9555C82.4542 24.837 82.5142 24.777 82.6327 24.777H86.1141C86.2131 24.777 86.2521 24.738 86.2521 24.618V18.0705H82.6342V18.072Z" fill="white"/>
<path d="M106.647 18.072C106.529 18.072 106.469 18.012 106.469 17.8935V17.1015C106.469 16.983 106.529 16.923 106.647 16.923H111.453C111.572 16.923 111.632 16.983 111.632 17.1015V24.618C111.632 24.7365 111.671 24.777 111.77 24.777H114.756C114.875 24.777 114.935 24.837 114.935 24.9555V25.746C114.935 25.8645 114.875 25.9245 114.756 25.9245H106.646C106.527 25.9245 106.467 25.8645 106.467 25.746V24.9555C106.467 24.837 106.527 24.777 106.646 24.777H110.127C110.226 24.777 110.265 24.738 110.265 24.618V18.0705H106.647V18.072Z" fill="white"/>
<path d="M110.702 5.9235C109.97 5.9235 109.554 6.3585 109.554 7.0905C109.554 7.8225 109.97 8.238 110.702 8.238C111.434 8.238 111.849 7.8225 111.849 7.0905C111.849 6.3585 111.434 5.9235 110.702 5.9235Z" fill="white"/>
<path d="M122.057 18.072H126.111C126.23 18.072 126.29 18.012 126.29 17.9145V17.103C126.29 16.9845 126.23 16.9245 126.111 16.9245H122.057V13.806C122.057 13.6875 121.997 13.6275 121.878 13.6275H120.869C120.75 13.6275 120.692 13.686 120.692 13.806V16.9245H118.002C117.884 16.9245 117.824 16.9845 117.824 17.103V17.9145C117.824 18.0135 117.884 18.072 118.002 18.072H120.692V22.977C120.692 24.837 121.781 25.9245 123.639 25.9245H126.111C126.23 25.9245 126.29 25.8645 126.29 25.746V24.9345C126.29 24.8355 126.23 24.7755 126.111 24.7755H123.857C122.67 24.7755 122.057 24.1035 122.057 22.9365V18.072Z" fill="white"/>
</svg>

<svg width="150" height="30" fill="none" xmlns="http://www.w3.org/2000/svg"><path d="M1.07.3l4.162 3.75L1.069 7.8c-.121.099-.04.3.12.3h1.308c.08 0 .13-.016.18-.06l4.364-3.99L2.677.06a.245.245 0 00-.18-.06H1.19c-.16 0-.24.2-.12.3zM86.69 5.923c-.732 0-1.147.436-1.147 1.167 0 .732.415 1.148 1.147 1.148s1.148-.415 1.148-1.147-.416-1.168-1.148-1.168zM141.711 12.79c-.118 0-.178-.06-.178-.158v-.812c0-.119.06-.178.178-.178h4.55c.118 0 .178.058.178.178v11.116c0 1.168.593 1.84 1.781 1.84h1.601c.119 0 .179.06.179.159v.811c0 .119-.06.178-.179.178h-1.799c-1.86 0-2.948-1.087-2.948-2.947V12.79h-3.363zM41.439 16.924c-.158 0-.198.02-.317.119l-4.213 3.819v-9.04c0-.12-.06-.179-.179-.179h-1.008c-.118 0-.178.06-.178.178v13.926c0 .119.06.179.178.179h1.008c.119 0 .179-.06.179-.178v-4.511l4.49 4.53c.118.12.197.159.335.159H43.1c.179 0 .237-.178.119-.297l-4.707-4.61 4.331-3.797c.139-.119.02-.298-.099-.298H41.44zM23.767 24.48c.04-.099.138-.119.257-.08 1.029.356 2.017.515 2.848.515 1.404 0 2.354-.454 2.354-1.167 0-.91-1.088-1.346-2.274-1.78l-.096-.036c-1.458-.543-3.03-1.13-3.03-2.793 0-1.82 1.978-2.354 3.858-2.354 1.087 0 2.136.159 2.73.355.099.04.138.139.099.238l-.237.77c-.04.119-.119.139-.218.119a10.593 10.593 0 00-2.611-.355c-1.167 0-2.235.277-2.235 1.186 0 .812 1.068 1.247 2.254 1.72l.091.037c1.46.584 3.055 1.222 3.055 2.713 0 1.918-1.84 2.493-3.7 2.493-1.345 0-2.689-.277-3.323-.573-.119-.06-.119-.138-.1-.218l.278-.79zM6.823 17.202c-.672-.257-1.483-.416-2.472-.416C1.483 16.787 0 18.706 0 21.418c0 2.73 1.522 4.648 4.351 4.648 1.008 0 1.859-.159 2.571-.495.1-.038.1-.137.06-.236l-.336-.752c-.039-.08-.138-.099-.237-.06-.83.276-1.207.356-1.998.356-1.443 0-2.986-.93-2.986-3.462 0-2.335 1.266-3.463 2.986-3.463.614 0 1.068.02 1.9.297.098.04.197.02.236-.06l.336-.751c.04-.078.04-.198-.06-.237z" fill="#fff"/><path fill-rule="evenodd" clip-rule="evenodd" d="M18.202 24.402c-.83.377-1.464.514-2.512.514-1.623 0-2.631-1.128-2.691-3.044h5.895c.157 0 .217-.1.217-.238v-.494c0-2.948-1.305-4.352-3.6-4.352-2.254 0-3.916 1.582-3.916 4.688 0 2.946 1.404 4.588 4.153 4.588 1.208 0 1.96-.198 2.909-.652.099-.04.099-.119.06-.198l-.297-.732c-.04-.08-.119-.119-.218-.08zM13 20.802c.178-2.157 1.425-2.928 2.532-2.928 1.089 0 2.196.633 2.196 2.928h-4.728zM50.941 26.063c-2.868 0-3.798-1.938-3.798-4.649 0-2.71.93-4.629 3.798-4.629s3.778 1.918 3.778 4.629c0 2.71-.91 4.648-3.778 4.648zm0-8.249c-1.542 0-2.373 1.227-2.373 3.6 0 2.394.831 3.62 2.373 3.62 1.543 0 2.353-1.206 2.353-3.62 0-2.393-.81-3.6-2.353-3.6z" fill="#fff"/><path d="M62.629 23.75c-.732 0-1.148.434-1.148 1.166 0 .731.416 1.146 1.148 1.148.732 0 1.147-.416 1.147-1.148s-.415-1.166-1.147-1.166z" fill="#fff"/><path fill-rule="evenodd" clip-rule="evenodd" d="M76.59 11.822c0-.119.06-.179.176-.179h1.01c.118 0 .178.058.178.178v13.926c0 .119-.06.179-.178.179h-.674c-.099 0-.138-.039-.159-.138l-.159-.652c-.95.652-1.82.93-2.67.93-2.413 0-3.58-1.721-3.58-4.63 0-2.867 1.227-4.648 3.798-4.648.83 0 1.582.297 2.256.792v-5.758h.001zm-2.077 13.054c.693 0 1.484-.237 2.078-.614v-5.677c-.614-.396-1.385-.672-2.078-.672-1.543 0-2.551 1.206-2.551 3.54-.002 2.514 1.008 3.423 2.551 3.423zM134.751 18.07c1.187 0 1.781.674 1.781 1.841h-.003v.79h-1.979c-2.353 0-3.699.672-3.699 2.849 0 1.503.851 2.512 2.394 2.512 1.227 0 2.039-.277 3.482-.91l.158.633c.022.099.061.138.16.138h.673c.119 0 .178-.06.178-.178V19.87c0-1.86-1.088-2.947-2.947-2.947h-3.085c-.099 0-.179.06-.179.179v.811c0 .098.08.157.179.157h2.887zm-2.493 5.383c0-1.187.732-1.682 2.117-1.682h2.157v2.512c-1.109.375-2.138.672-3.008.672-.87 0-1.266-.652-1.266-1.502zM100.97 16.924h.652c.119 0 .179.06.177.179v9.95c0 1.86-1.087 2.947-2.947 2.947h-3.104c-.118 0-.178-.06-.178-.178v-.812c0-.099.06-.159.178-.159h2.886c1.187 0 1.8-.674 1.8-1.84v-1.799c-.751.553-1.72.85-2.532.85-2.412 0-3.5-1.72-3.5-4.629 0-2.867 1.127-4.648 3.698-4.648.87 0 1.72.317 2.532.93l.159-.652c.02-.1.06-.139.179-.139zm-5.144 4.53c0 2.511.91 3.422 2.453 3.422.693 0 1.582-.237 2.157-.612v-5.677c-.594-.396-1.464-.672-2.157-.672-1.542 0-2.453 1.206-2.453 3.54z" fill="#fff"/><path d="M82.634 18.072c-.118 0-.178-.06-.178-.178v-.792c0-.119.06-.179.178-.179h4.806c.119 0 .179.06.179.179v7.516c0 .119.039.159.138.159h2.986c.119 0 .179.06.179.178v.791c0 .119-.06.178-.179.178h-8.11c-.119 0-.179-.06-.179-.178v-.79c0-.119.06-.179.179-.179h3.481c.1 0 .138-.039.138-.159v-6.547h-3.618v.001zM106.647 18.072c-.118 0-.178-.06-.178-.178v-.792c0-.119.06-.179.178-.179h4.806c.119 0 .179.06.179.179v7.516c0 .119.039.159.138.159h2.986c.119 0 .179.06.179.178v.791c0 .119-.06.178-.179.178h-8.11c-.119 0-.179-.06-.179-.178v-.79c0-.119.06-.179.179-.179h3.481c.099 0 .138-.039.138-.159v-6.547h-3.618v.001zM110.702 5.923c-.732 0-1.148.436-1.148 1.167 0 .732.416 1.148 1.148 1.148s1.147-.415 1.147-1.147-.415-1.168-1.147-1.168zM122.057 18.072h4.054c.119 0 .179-.06.179-.157v-.812c0-.119-.06-.179-.179-.179h-4.054v-3.118c0-.118-.06-.178-.179-.178h-1.009c-.119 0-.177.058-.177.178v3.118h-2.69c-.118 0-.178.06-.178.179v.811c0 .1.06.158.178.158h2.69v4.905c0 1.86 1.089 2.947 2.947 2.947h2.472c.119 0 .179-.06.179-.178v-.811c0-.1-.06-.16-.179-.16h-2.254c-1.187 0-1.8-.671-1.8-1.838v-4.865z" fill="#fff"/></svg>
